stationComplements/1 Small/assets/OfficersLog.svg

<svg xmlns="http://www.w3.org/2000/svg" viewBox="0 0 448 512">
  <!--! Font Awesome Free 6.2.0 by @fontawesome - https://fontawesome.com License - https://fontawesome.com/license/free (Icons: CC BY 4.0, Fonts: SIL OFL 1.1, Code: MIT License) Copyright 2022 Fonticons, Inc. -->
  <path
    fill="currentColor"
    d="M0 96C0 43 43 0 96 0h96V190.7c0 13.4 15.5 20.9 26 12.5L272 160l54 43.2c10.5 8.4 26 .9 26-12.5V0h32 32c17.7 0 32 14.3 32 32V352c0 17.7-14.3 32-32 32v64c17.7 0 32 14.3 32 32s-14.3 32-32 32H384 96c-53 0-96-43-96-96V96zM64 416c0 17.7 14.3 32 32 32H352V384H96c-17.7 0-32 14.3-32 32z"
  />
</svg>

<?xml version="1.0" encoding="UTF-8" standalone="no"?>
<!DOCTYPE svg PUBLIC "-//W3C//DTD SVG 1.1//EN" "http://www.w3.org/Graphics/SVG/1.1/DTD/svg11.dtd">
<svg width="100%" height="100%" viewBox="0 0 128 128" version="1.1" xmlns="http://www.w3.org/2000/svg" xmlns:xlink="http://www.w3.org/1999/xlink" xml:space="preserve" xmlns:serif="http://www.serif.com/" style="fill-rule:evenodd;clip-rule:evenodd;stroke-linejoin:round;stroke-miterlimit:2;">
    <g transform="matrix(0.191406,0,0,0.191406,21.125,15)">
        <path d="M0,96C0,43 43,0 96,0L192,0L192,190.7C192,204.1 207.5,211.6 218,203.2L272,160L326,203.2C336.5,211.6 352,204.1 352,190.7L352,0L416,0C433.7,0 448,14.3 448,32L448,352C448,369.7 433.7,384 416,384L416,448C433.7,448 448,462.3 448,480C448,497.7 433.7,512 416,512L96,512C43,512 0,469 0,416L0,96ZM64,416C64,433.7 78.3,448 96,448L352,448L352,384L96,384C78.3,384 64,398.3 64,416Z" style="fill:currentColor"/>
    </g>
</svg>
